X: 0861
T: THE MALTMAN
B: Oliver Ditson "The Boston Collection of Instrumental Music" 1910 p.86 #1
F: http://conquest.imslp.info/files/imglnks/usimg/8/8f/IMSLP175643-PMLP309456-bostoncollection00bost_bw.pdf
%: 2012 John Chambers <jc:trillian.mit.edu>
M: 9/8
L: 1/8
K: G
   D | E/F/GG G2g dBG | F2A AFA TF2D | E/F/GG G2g def | g2G G>AG G2 :|
|: c | Bcd efg dBG | TF2A AFA TF2D | dBd ece def | g2G GAG G2 :|
|: d//e//f/ | g3 Tf2e dBG | TF2A AEA TF2D | gag Tf2e def | g2G GAG G2 :|

%%sep 1 1 500
%%sep 1 1 500
